X: 1
T: Evil Diane
C: by Sam Bartlett
R: reel
%S: s:2 b:16(4+4+4+4)
S: Fiddle Hell Online 2021-10-29
Z: 2021 John Chambers <jc:trillian.mit.edu>
M: C|
L: 1/8
K: A
e>g |\
"A"aeea fedc | "D"decd "A"BcAG | "E"EDEF GABG | "A"AGAB cdeg |
"A"aeea fedc | "D"decd "A"BcAG | "E"EDEF GABG | "A"AGEG [1 A2 :|[2 "A"A4 ||
|:\
"E"EDEE GABc | d2EF GABc | d2cd B2AB | GBAB GBAG |
"E"EDEE GABc | d2EF GABc | "(D)"d2cd B2AB | "E"GDEG [1 "A"A4 :|[2 "A"A2 |]
